!!!!SEGMENT: pl-wn--mus-iii-78-783-cim_zarebski-juliusz--etude-de-concert-op-3.krn
!!!cenid: 18xx:3561
!!!COM: Zarębski, Juliusz
!!!COM-rismID: pe30020631
!!!CDT: 1854/02/28-1885/09/15
!!!CNT:
!!!OTL: Etude de concert op. 3
!!!PDT: 1879
!!!AGN:
!!!SMS-siglum: PL-Wn
!!!SMS-shelfmark: Mus.III.78.783 Cim.
!!!SMS-shelfwork: W
!!!SMS-variant:
!!!SMS-altvar:
!!!NIFC-rismSourceID:
!!!NIFC-islandoraID:
!!!URL-pdf-islandora:
!!!URL-scan: https://polona.pl/item/etude-de-concert-en-sol-majeur-pour-piano-op-3,NTM4MjU5NTU/0 @EN{Scan on Polona} @PL{Skany w portalu Polona}
!!!ONB-nifc:
!!!AIN: 1 piano
!!!key: G
!!!key:
**kern	**fing	**kern	**fing	**dynam
*part1	*part1	*part1	*part1	*part1
*staff2	*	*staff1	*	*
*Ipiano	*	*Iempty	*	*
*I"Piano	*	*	*	*
*I'pf	*	*	*	*
*ICklav	*	*	*	*
*clefF4	*	*clefG2	*	*
*k[f#]	*	*k[f#]	*	*
*G:	*	*G:	*	*
*M2/4	*	*M2/4	*	*
=1	=1	=1	=1	=1
*xywh-#3:280,738,2435,627	*	*xywh-#3:280,738,2435,627	*	*
!	!	!LO:TX:a:B:t=Allegro molto.	!	!
(16GG\LL	.	2r	.	p
16D\	.	.	.	.
16G\	.	.	.	.
16A\JJ	.	.	.	.
16B\LL	.	.	.	.
16A\	.	.	.	.
16G\	.	.	.	.
16B\JJ)	.	.	.	.
=2	=2	=2	=2	=2
8ryy	.	16e/LL 16c/	.	.
.	.	16e/JJ 16c/	.	.
16d>\LL 16B>\	.	8ryy	.	<
16d>\JJ 16B>\	.	.	.	.
8ryy	.	16g/LL 16e/	.	.
.	.	16g/JJ 16e/	.	.
16a>\LL 16f#>\	.	16ryy	.	.
!	!	!LO:TX:a:i:t=m.d.	!	!
16a>\JJ 16f#>\	.	16a/ 16f#/	.	.
=3	=3	=3	=3	=3
(16GG\LL	.	8b/ 8g'/	.	.
16D\	.	.	.	.
16G\	.	8r	.	[
16A\JJ	.	.	.	.
16B\LL	.	4r	.	.
16A\	.	.	.	.
16G\	.	.	.	.
16B\JJ)	.	.	.	.
=4	=4	=4	=4	=4
!	!	!	!	!LO:HP:a
8ryy	.	16e/LL 16c/	.	<
.	.	16e/JJ 16c/	.	.
16d>\LL 16B>\	.	8r	.	.
16d>\JJ 16B>\	.	.	.	.
8ryy	.	16g/LL 16e/	.	.
.	.	16g/JJ 16e/	.	.
16a>\LL 16f#>\	.	16ryy	.	.
16a>\JJ 16f#>\	.	16a/ 16f#/	.	[[
=5	=5	=5	=5	=5
!	!	!LO:TX:a:i:t=simile	!	!
(16GG\LL	.	8b/ 8g'/	.	.
16D\	.	.	.	.
16G\	.	8r	.	.
16A\JJ	.	.	.	.
16B\LL	.	4r	.	.
16A\	.	.	.	.
16G\	.	.	.	.
16B\JJ)	.	.	.	.
!!LO:LB:g=original
=6	=6	=6	=6	=6
*xywh-#3:280,1365,2466,511	*	*xywh-#3:280,1365,2466,511	*	*
8ryy	.	16e/LL 16c/	.	.
.	.	16e/JJ 16c/	.	.
16d>\LL 16B>\	.	8ryy	.	<
16d>\JJ 16B>\	.	.	.	.
8ryy	.	16g/LL 16e/	.	.
.	.	16g/JJ 16e/	.	.
16a>\LL 16f#>\	.	8ryy	.	.
16a>\JJ 16f#>\	.	.	.	.
=7	=7	=7	=7	=7
8ryy	.	16b/LL 16g/	.	.
.	.	16b/JJ 16g/	.	.
16cc>\LL 16a>\	.	8ryy	.	.
16cc>\JJ 16a>\	.	.	.	.
8ryy	.	16ee/LL 16cc^>/	.	[
.	.	16ee/JJ 16cc/	.	.
16dd>\LL 16b>\	.	8ryy	.	>
16dd>\JJ 16b>\	.	.	.	.
=8	=8	=8	=8	=8
8ryy	.	16b/LL 16g/	.	.
.	.	16b/JJ 16g/	.	.
16f#>\LL 16d>\	.	8ryy	.	.
16f#>\JJ 16d>\	.	.	.	.
8ryy	.	16g/LL 16e/	.	.
.	.	16g/JJ 16e/	.	.
16a>\LL 16f#>\	.	16ryy	.	.
16a>\JJ 16f#>\	.	16a/ 16f#/	.	]]
=9	=9	=9	=9	=9
(16BB\LL	.	8b/ 8f#/ 8d/	.	.
16F#\	.	.	.	.
16B\	.	8r	.	.
16c#X\JJ	.	.	.	.
16d\LL	.	4r	.	.
16c#\	.	.	.	.
16B\	.	.	.	.
16d\JJ)	.	.	.	.
=10	=10	=10	=10	=10
8ryy	.	16g/LL 16e/	.	.
.	.	16g/JJ 16e/	.	.
16f#>\LL 16d>\	.	8ryy	.	<
16f#>\JJ 16d>\	.	.	.	.
8ryy	.	16b/LL 16g/	.	.
.	.	16b/JJ 16g/	.	.
16cc#X>\LL 16a#X>\	.	16ryy	.	.
16cc#X>\JJ 16a#X>\	.	16cc#X/ 16a#X/	.	[[
!!LO:LB:g=original
=11	=11	=11	=11	=11
*xywh-#3:245,1877,2501,543	*	*xywh-#3:245,1877,2501,543	*	*
(16BB\LL	.	8dd\ 8b\	.	mf
16F#\	.	.	.	.
16B\	.	8r	.	.
16c#X\JJ	.	.	.	.
16d\LL	.	4r	.	.
16c#\	.	.	.	.
16B\	.	.	.	.
16d\JJ)	.	.	.	.
=12	=12	=12	=12	=12
8ryy	.	16g/LL 16e/	.	.
.	.	16g/JJ 16e/	.	.
16f#>\LL 16d>\	.	8ryy	.	<
16f#>\JJ 16d>\	.	.	.	.
8ryy	.	16b/LL 16g/	.	.
.	.	16b/JJ 16g/	.	.
16cc#X>\LL 16a#X>\	.	16ryy	.	.
16cc#X>\JJ 16a#X>\	.	16cc#X/ 16a#X/	.	[[
=13	=13	=13	=13	=13
(16BB\LL	.	8dd\ 8b\	.	.
16F#\	.	.	.	.
16B\	.	8r	.	.
16c#X\JJ	.	.	.	.
16d\LL	.	4r	.	.
16c#\	.	.	.	.
16B\	.	.	.	.
16d\JJ)	.	.	.	.
=14	=14	=14	=14	=14
8ryy	.	16g/LL 16e/	.	<
.	.	16g/JJ 16e/	.	.
16f#>\LL 16d>\	.	8ryy	.	.
16f#>\JJ 16d>\	.	.	.	.
8ryy	.	16b/LL 16g/	.	.
.	.	16b/JJ 16g/	.	.
16cc#X>\LL 16a#X>\	.	8ryy	.	.
16cc#>\JJ 16a#>\	.	.	.	.
=15	=15	=15	=15	=15
8ryy	.	16dd/LL 16b/	.	.
.	.	16dd/JJ 16b/	.	.
16ee>\LL 16cc#X>\	.	8ryy	.	.
16ee>\JJ 16cc#>\	.	.	.	.
8ryy	.	16gg/LL 16ee/	.	[ >
.	.	16gg/JJ 16ee/	.	.
16ff#>\LL 16dd>\	.	8ryy	.	.
16ff#>\JJ 16dd>\	.	.	.	.
!!LO:LB:g=original
=16	=16	=16	=16	=16
*xywh-#3:245,2420,2506,574	*	*xywh-#3:245,2420,2506,574	*	*
8ryy	.	16ee/LL 16ccn/	.	.
.	.	16ee/JJ 16cc/	.	.
16b>\LL 16g>\	.	8ryy	.	.
16b>\JJ 16g>\	.	.	.	.
8ryy	.	16ee/LL 16cc/	.	.
.	.	16ee/JJ 16cc/	.	.
16a>\LL 16f#>\	.	16ryy	.	.
16a>\JJ 16f#>\	.	16a/ 16f#/	.	]]
=17	=17	=17	=17	=17
(16GG\LL	.	8b/ 8g'/	.	.
16D\	.	.	.	.
16G\	.	8r	.	.
16A\JJ	.	.	.	.
16B\LL	.	4r	.	.
16A\	.	.	.	.
16G\	.	.	.	.
16B\JJ)	.	.	.	.
=18	=18	=18	=18	=18
!	!	!	!	!LO:HP:a
8ryy	.	16e/LL 16c/	.	<
.	.	16e/JJ 16c/	.	.
16d>\LL 16B>\	.	8ryy	.	.
16d>\JJ 16B>\	.	.	.	.
8ryy	.	16ee/LL 16cc/	.	[
!	!	!	!	!LO:HP:a
.	.	16ee/JJ 16cc/	.	>
16a>\LL 16f#>\	.	16ryy	.	.
16a>\JJ 16f#>\	.	16a/ 16f#/	.	]]
=19	=19	=19	=19	=19
(16GG\LL	.	8d/ 8B'/	.	.
16D\	.	.	.	.
16G\	.	8r	.	.
16A\JJ	.	.	.	.
16B\LL	.	4r	.	.
16A\	.	.	.	.
16G\	.	.	.	.
16B\JJ)	.	.	.	.
=20	=20	=20	=20	=20
!	!	!	!	!LO:HP:a
8ryy	.	16e/LL 16c/	.	<
.	.	16e/JJ 16c/	.	.
16d>\LL 16B>\	.	8r	.	.
16d>\JJ 16B>\	.	.	.	.
8ryy	.	16ee/LL 16cc/	.	[
!	!	!	!	!LO:HP:a
.	.	16ee/JJ 16cc/	.	>
16a>\LL 16f#>\	.	16r	.	.
16a>\JJ 16f#>\	.	16a/ 16f#/	.	]]
!!LO:LB:g=original
=21	=21	=21	=21	=21
*ywh-#3:236,2995,2515,525	*	*ywh-#3:236,2995,2515,525	*	*
(16GG\LL	.	8d/ 8B/	.	.
16D\	.	.	.	.
16G\	.	8r	.	.
16A\JJ	.	.	.	.
16B\LL	.	4r	.	.
16A\	.	.	.	.
16G\	.	.	.	.
16B\JJ)	.	.	.	.
=22	=22	=22	=22	=22
8ryy	.	16e/LL 16c/	.	<
.	.	16e/JJ 16c/	.	.
16d>\LL 16B>\	.	8ryy	.	.
16d>\JJ 16B>\	.	.	.	.
8ryy	.	16ee\LL 16cc\	.	.
.	.	16ee\JJ 16cc\	.	.
16a>\LL 16f#>\	.	8ryy	.	.
16a>\JJ 16f#>\	.	.	.	.
=23	=23	=23	=23	=23
8ryy	.	16ee\LL 16cc\	.	.
.	.	16ee\JJ 16cc\	.	.
16a>\LL 16f#>\	.	8ryy	.	.
16a>\JJ 16f#>\	.	.	.	.
8ryy	.	16ee\LL 16cc\	.	.
.	.	16ee\JJ 16cc\	.	.
16a-X>\LL 16f#X>\	.	8ryy	.	[[
16a->\JJ 16f#>\	.	.	.	.
=24	=24	=24	=24	=24
8ryy	.	16ee\LL 16cc\	.	>
.	.	16ee\JJ 16cc\	.	.
16a-X>\LL 16fn>\	.	8ryy	.	.
16a->\JJ 16f>\	.	.	.	.
8ryy	.	16dd\LL 16b\	.	.
.	.	16dd\JJ 16b\	.	.
16g>\ 16f>\	.	16ryy	.	.
16ryy	.	16g/ 16f#/	.	]]
=25	=25	=25	=25	=25
(16C\LL	.	8g/ 8e/	.	.
16G\	.	.	.	.
16c\	.	8r	.	.
16d\JJ	.	.	.	.
16e\LL	.	4r	.	.
16d\	.	.	.	.
16c\	.	.	.	.
16e\JJ)	.	.	.	.
!!LO:PB:g=original
=26	=26	=26	=26	=26
*xywh-#4:449,391,2479,522	*	*xywh-#4:449,391,2479,522	*	*
!	!	!	!	!LO:HP:a
8ryy	.	16a/LL 16fn/	.	<
.	.	16a/JJ 16f/	.	.
16g>\LL 16e>\	.	8ryy	.	.
16g>\JJ 16e>\	.	.	.	.
8ryy	.	16gg/LL 16ee/	.	[
!	!	!	!	!LO:HP:a
.	.	16gg/JJ 16ee/	.	>
16dd>\LL 16b>\	.	16ryy	.	.
16dd>\JJ 16b>\	.	16dd/ 16b/	.	]]
=27	=27	=27	=27	=27
(16C\LL	.	8g/ 8e/	.	.
16G\	.	.	.	.
16c\	.	8r	.	.
16d\JJ	.	.	.	.
16e\LL	.	4r	.	.
16d\	.	.	.	.
16c\	.	.	.	.
16e\JJ)	.	.	.	.
=28	=28	=28	=28	=28
!	!	!	!	!LO:HP:a
8ryy	.	16a/LL 16fn/	.	<
.	.	16a/JJ 16f/	.	.
16g>\LL 16e>\	.	8ryy	.	.
16g>\JJ 16e>\	.	.	.	.
!	!	!	!	!LO:HP:a
8ryy	.	16gg/LL 16ee/	.	[ >
.	.	16gg/JJ 16ee/	.	.
16dd>\LL 16b>\	.	16ryy	.	.
16dd>\JJ 16b>\	.	16dd/ 16b/	.	]]
=29	=29	=29	=29	=29
(16C\LL	.	8g/ 8e/	.	.
16G\	.	.	.	.
16c\	.	8r	.	.
16d\JJ	.	.	.	.
16e\LL	.	4r	.	.
16d\	.	.	.	.
16c\	.	.	.	.
16e\JJ)	.	.	.	.
=30	=30	=30	=30	=30
8ryy	.	16a/LL 16fn/	.	<
.	.	16a/JJ 16f/	.	.
16g>\LL 16e>\	.	8ryy	.	.
16g>\JJ 16e>\	.	.	.	.
8ryy	.	16gg/LL 16ee/	.	.
.	.	16gg/JJ 16ee/	.	.
16dd>\LL 16b>\	.	8ryy	.	.
16dd>\JJ 16b>\	.	.	.	.
=31	=31	=31	=31	=31
8ryy	.	16gg/LL 16ee/	.	.
.	.	16gg/JJ 16ee/	.	.
16dd>\LL 16b>\	.	8ryy	.	.
16dd>\JJ 16b>\	.	.	.	.
8ryy	.	16gg/LL 16ee/	.	.
.	.	16gg/JJ 16ee/	.	.
16cc#X>\LL 16b>\	.	8ryy	.	[[
16cc#>\JJ 16b>\	.	.	.	.
!!LO:LB:g=original
=32	=32	=32	=32	=32
*xywh-#4:449,913,2489,494	*	*xywh-#4:449,913,2489,494	*	*
8ryy	.	16gg/LL 16ee/	.	>
.	.	16gg/JJ 16ee/	.	.
16cc#X>\LL 16a#X>\	.	8ryy	.	.
16cc#>\JJ 16a#>\	.	.	.	.
8ryy	.	16ff#/LL 16ee/	.	.
.	.	16ff#/JJ 16ee/	.	.
16cc#>\LL 16a#>\	.	16ryy	.	.
16cc#>\JJ 16a#>\	.	16cc/ 16a/	.	]]
=33	=33	=33	=33	=33
(<16B>\LL	.	8ff#/ 8dd/	.	.
16f#X>\	.	.	.	.
16b>\	.	8r	.	.
16cc#X>\JJ	.	.	.	.
16dd>\LL	.	4r	.	.
16cc#>\	.	.	.	.
16b>\	.	.	.	.
16dd>\JJ)	.	.	.	.
=34	=34	=34	=34	=34
8ryy	.	16gg/LL 16ee/	.	.
.	.	16gg/JJ 16ee/	.	.
16ff#>\LL 16dd>\	.	8ryy	.	.
16ff#>\JJ 16dd>\	.	.	.	.
8ryy	.	16ddd/LL 16bb/	.	.
.	.	16ddd/JJ 16bb/	.	.
16gg>\LL 16ee>\	.	16ryy	.	.
16gg>\JJ 16ee>\	.	16gg/ 16ee/	.	.
=35	=35	=35	=35	=35
(<16B>\LL	.	8ff#/ 8dd/	.	.
16f#>\	.	.	.	.
16b>\	.	8r	.	.
16cc#X>\JJ	.	.	.	.
16dd>\LL	.	4r	.	.
16cc#>\	.	.	.	.
16b>\	.	.	.	.
16dd>\JJ)	.	.	.	.
=36	=36	=36	=36	=36
8ryy	.	16gg/LL 16ee/	.	.
.	.	16gg/JJ 16ee/	.	.
16ff#>\LL 16dd>\	.	8ryy	.	.
16ff#>\JJ 16dd>\	.	.	.	.
8ryy	.	16ddd/LL 16bb/	.	.
.	.	16ddd/JJ 16bb/	.	.
16gg>\LL 16ee>\	.	8ryy	.	.
16gg>\JJ 16ee>\	.	.	.	.
!!LO:LB:g=original
=37	=37	=37	=37	=37
*xywh-#4:449,1408,2489,501	*	*xywh-#4:449,1408,2489,501	*	*
!	!	!LO:TX:b:t=cresc.-:ext2=cd:problem=dynamics with extention lines	!	!
8ryy	.	16ddd/LL 16bb/	.	<
.	.	16ddd/JJ 16bb/	.	.
16gg>\LL 16ee>\	.	8ryy	.	.
16gg>\JJ 16ee>\	.	.	.	.
8ryy	.	16ddd/LL 16bb/	.	.
.	.	16ddd/JJ 16bb/	.	.
16ccc#X>\LL 16aa#X>\	.	8ryy	.	.
16ccc#>\JJ 16aa#>\	.	.	.	.
=38	=38	=38	=38	=38
8ryy	.	16ddd/LL 16bb/	.	.
.	.	16ddd/JJ 16bb/	.	.
16gg>\LL 16ee>\	.	8ryy	.	.
16gg>\JJ 16ee>\	.	.	.	.
8ryy	.	16ddd/LL 16bb/	.	.
.	.	16ddd/JJ 16bb/	.	.
16ccc#X>\LL 16aa#X>\	.	8ryy	.	.
16ccc#>\JJ 16aa#>\	.	.	.	.
=39	=39	=39	=39	=39
8ryy	.	16ddd/LL 16bb/	.	.
.	.	16ddd/JJ 16bb/	.	.
16gg#X>\LL 16ee#X>\	.	8ryy	.	.
16gg#>\JJ 16ee#>\	.	.	.	.
8ryy	.	16ddd/LL 16bb/	.	.
.	.	16ddd/JJ 16bb/	.	.
16ccc#X>\LL 16aa#X>\	.	8ryy	.	.
16ccc#>\JJ 16aa#>\	.	.	.	.
=40	=40	=40	=40	=40
8ryy	.	16ddd/LL 16bb/	.	.
.	.	16ddd/JJ 16bb/	.	.
16gg#X>\LL 16ee#X>\	.	8ryy	.	.
16gg#>\JJ 16ee#>\	.	.	.	.
8ryy	.	16ccc#X/LL 16bb/	.	.
.	.	16ccc#/JJ 16bb/	.	.
16gg#>\LL 16ee#>\	.	16ryy	.	.
16gg#>\JJ 16ee#>\	.	16gg/ 16ee/	.	[[
*clefG2	*	*	*	*
=41	=41	=41	=41	=41
(16f#\LL	.	8ccc#X\ 8aa#X\	.	f
16cc#X\	.	.	.	.
16ff#\	.	8r	.	.
16gg#X\JJ	.	.	.	.
16aa#X\LL	.	4r	.	.
16gg#\	.	.	.	.
16ff#\	.	.	.	.
16aa#\JJ)	.	.	.	.
!!LO:LB:g=original
=42	=42	=42	=42	=42
*xywh-#4:449,1909,2465,594	*	*xywh-#4:449,1909,2465,594	*	*
8ryy	.	16ddd/LL 16bb^>/	.	.
.	.	16ddd/JJ 16bb/	.	.
16gg#X>\LL 16ee#X>\	.	8ryy	.	.
16gg#>\JJ 16ee#>\	.	.	.	.
8ryy	.	16ee/LL 16dd/	.	.
.	.	16ee/JJ 16dd/	.	.
16dd>\LL 16b>\	.	16ryy	.	.
16dd>\JJ 16b>\	.	16dd/ 16b/	.	.
=43	=43	=43	=43	=43
(16F#/LL	.	8cc#X\ 8a#X\	.	.
16c#X/	.	.	.	.
16f#/	.	8r	.	.
16g#X/JJ	.	.	.	.
16a#X/LL	.	4r	.	.
16g#/	.	.	.	.
16f#/	.	.	.	.
16a#/JJ)	.	.	.	.
=44	=44	=44	=44	=44
8ryy	.	16dd/LL 16b^>/	.	.
.	.	16dd/JJ 16b/	.	.
16g#X>/LL 16e#X>/	.	8ryy	.	.
16g#>/JJ 16e#>/	.	.	.	.
8ryy	.	16e/LL 16d/	.	.
.	.	16e/JJ 16d/	.	.
16d>/LL 16B>/	.	16ryy	.	.
16d>/JJ 16B>/	.	16d/ 16B/	.	.
*clefF4	*	*	*	*
=45	=45	=45	=45	=45
(>16FF#\LL	.	8c#X</ 8A#X</	.	.
16C#X\	.	.	.	.
16F#\	.	8r	.	.
16G#X\JJ	.	.	.	.
16A\LL	.	4r	.	.
16G#\	.	.	.	.
16F#\	.	.	.	.
16A\JJ)	.	.	.	.
=46	=46	=46	=46	=46
8ryy	.	16g#X/LL 16e#X/	.	.
.	.	16g#/JJ 16e#/	.	.
16e>\LL 16d>\	.	8ryy	.	.
16e>\JJ 16d>\	.	.	.	.
8ryy	.	16d/LL 16B/	.	.
.	.	16d/JJ 16B/	.	.
16B\LL 16G#X\	.	8ryy	.	.
16B\JJ 16G#\	.	.	.	.
!!LO:LB:g=original
=47	=47	=47	=47	=47
*xywh-#4:439,2503,2476,522	*	*xywh-#4:439,2503,2476,522	*	*
!	!	!LO:TX:b:t=dim-:ext2=cd:problem=dynamics with extention lines	!	!
8ryy	.	16g#X/LL 16e#X/	.	>
.	.	16g#/JJ 16e#/	.	.
16e>\LL 16d>\	.	8ryy	.	.
16e>\JJ 16d>\	.	.	.	.
8ryy	.	16d/LL 16B/	.	.
.	.	16d/JJ 16B/	.	.
16B\LL 16G#X\	.	8ryy	.	.
16B\JJ 16G#\	.	.	.	.
=48	=48	=48	=48	=48
8ryy	.	16d</LL 16B</	.	.
.	.	16d</JJ 16B</	.	.
16G#X\LL 16E#X\	.	8ryy	.	.
16G#\JJ 16E#\	.	.	.	.
8ryy	.	16c#X</LL 16B</	.	.
.	.	16c#</JJ 16B</	.	.
16G#\LL 16E#\	.	16ryy	.	.
16G#\JJ 16E#\	.	16G</ 16E</	.	]]
=49	=49	=49	=49	=49
(>16FF#\LL	.	8c#X</ 8A#X</	.	p
16C#X\	.	.	.	.
16F#\	.	8r<	.	.
16G#X\JJ	.	.	.	.
16A\LL	.	4r<	.	.
16G#\	.	.	.	.
16F#\	.	.	.	.
16A\JJ)	.	.	.	.
=50	=50	=50	=50	=50
8d\ 8B\ 8F#\	.	(16ff#^\LL	.	.
.	.	16b\	.	.
8r	.	16f#\	.	.
.	.	16e\JJ	.	.
4r	.	16d/LL	.	.
.	.	16c#X/	.	.
.	.	16B/	.	.
.	.	16d/JJ)	.	.
=51	=51	=51	=51	=51
(16FF#/LL	.	8c#X/ 8A#X/	.	.
16C#X/	.	.	.	.
16F#/	.	8r	.	.
16G#X/JJ	.	.	.	.
16A#X\LL	.	4r	.	.
16G#\	.	.	.	.
16F#\	.	.	.	.
16A#\JJ)	.	.	.	.
!!LO:LB:g=original
=52	=52	=52	=52	=52
*xywh-#4:439,3025,2507,638	*	*xywh-#4:439,3025,2507,638	*	*
!	!	!LO:TX:t=cresc._:problem=dynamics with extention lines	!	!
8B\ 8G\ 8D\	.	(16ff#^\LL	.	<
.	.	16b\	.	.
8r	.	16f#\	.	.
.	.	16e\JJ	.	.
4r	.	16d/LL	.	.
.	.	16c#X/	.	.
.	.	16B/	.	.
.	.	16d/JJ)	.	.
=53	=53	=53	=53	=53
4d\ 4B\ 4E\	.	(16gg\LL	.	.
.	.	16b\	.	.
.	.	16g\	.	.
.	.	16f#\JJ	.	.
4r	.	16e/LL	.	.
.	.	16d/	.	.
.	.	16c#X/	.	.
.	.	16e/JJ)	.	[[
=54	=54	=54	=54	=54
4c#X\ 4G\ 4E\ 4AA\	.	(16aa^\LL	5	f
.	.	16ee\	3	.
.	.	16b\	1	.
.	.	16a\JJ	4	.
*	*below	*	*below	*
8r	.	16g/LL	3	<
.	.	16f#/	2	.
(16E\LL	5	16e/	1	.
16G\JJ	4	16g/JJ	2	.
=55	=55	=55	=55	=55
*	*	*	*above	*
!	!	!LO:TX:a:i:t=brillante	!	!
16A\LL	3	16a\LL	3	.
16B\	2	16b\	1	.
16e\	1	16ee\	2	.
16g\JJ	4	16gg\JJ	4	.
*clefG2	*above	*	*	*
16a\LL	3	16aa\LL	1	.
16b\	2	16bb\	2	.
16ee\	1	16eee\	4	.
16gg\JJ	2	16ggg\JJ	5	[[
=56	=56	=56	=56	=56
16ee\LL	1	16eee\LL	4	.
16b\	2	16bb\	2	.
16a\	3	16aa\	1	.
16g\JJ	4	16gg\JJ	4	.
16e/LL	1	16ee\LL	2	.
16B/	.	16b\	1	.
16A/JJ)	.	16a\	4	.
16r	.	16g\JJ	3	.
*clefF4	*	*	*	*
=57	=57	=57	=57	=57
*	*	*	*below	*
(16DD/LL	.	8f#/ 8d/)	2 1	.
16AA/	.	.	.	.
16D/	.	8r	.	.
16E/JJ	.	.	.	.
16F#\LL	.	4r	.	.
16E\	.	.	.	.
16D\	.	.	.	.
16F#\JJ)	.	.	.	.
!!LO:PB:g=original
=58	=58	=58	=58	=58
*xywh-#5:319,355,2428,521	*	*xywh-#5:319,355,2428,521	*	*
8e\ 8c#X\ 8A\ 8G\	.	(16bb\LL	.	.
.	.	16ee\	.	.
8r	.	16b\	.	.
.	.	16a\JJ	.	.
4r	.	16g/LL	.	.
.	.	16f#/	.	.
.	.	16e/	.	.
.	.	16g/JJ	.	.
=59	=59	=59	=59	=59
(16DD/LL	.	8f#/ 8d/)	.	.
16AA/	.	.	.	.
16D/	.	8r	.	.
16E/JJ	.	.	.	.
16F#\LL	.	4r	.	.
16E\	.	.	.	.
16D\	.	.	.	.
16F#\JJ)	.	.	.	.
=60	=60	=60	=60	=60
!	!	!LO:TX:t=cresc._:problem=dynamics with extention lines	!	!
8e\ 8c#X\ 8A\ 8G\	.	(16bb^\LL	.	<
.	.	16ee\	.	.
8r	.	16b\	.	.
.	.	16a\JJ	.	.
4r	.	16g/LL	.	.
.	.	16f#/	.	.
.	.	16e/	.	.
.	.	16g/JJ)	.	.
=61	=61	=61	=61	=61
4fn:\ 4c\ 4A-X\ 4D\	.	(16ccc^\LL	.	.
.	.	16ffn\	.	.
.	.	16cc\	.	.
.	.	16b-X\JJ	.	.
4r	.	16a-X/LL	.	.
.	.	16g/	.	.
.	.	16fn/	.	.
.	.	16a-/JJ)	.	.
=62	=62	=62	=62	=62
4f#X:\ 4c#X\ 4A\ 4D\	.	(16ccc#X^\LL	.	.
.	.	16ff#X\	.	.
.	.	16cc#X\	.	.
.	.	16b\JJ	.	.
4r	.	16a/LL	.	.
.	.	16g#X/	.	.
.	.	16f#/	.	.
.	.	16a/JJ)	.	[[
=63	=63	=63	=63	=63
4f#\ 4cn\ 4A\ 4D\	.	(16ddd^\LL	.	.
.	.	16ff#\	.	.
.	.	16dd\	.	.
.	.	16cc\JJ	.	.
16r	.	16b\LL	.	.
(16g\LL	.	16a\	.	.
16f#\	.	16b\	.	<
16e\JJ	.	16cc\JJ)	.	.
!!LO:LB:g=original
=64	=64	=64	=64	=64
*xywh-#5:319,876,2489,525	*	*xywh-#5:319,876,2489,525	*	*
16d\LL	.	(16dd\LL	.	.
16c\	.	16ff#\	.	.
16A\	.	16bb\	.	.
16F#\JJ	.	16ccc\JJ	.	.
*	*	*8va	*	*
16D/LL	.	16ddd\LL	.	.
16C/	.	16fff#\	.	.
16FF#/	.	16cccc\	.	.
16DD/JJ)	.	16dddd\JJ)	.	[[
*	*	*X8va	*	*
=65	=65	=65	=65	=65
!	!	!LO:TX:a:i:t=con bravura	!	!
(16BB-X/LL 16BBB-X/	.	4ddd^\ 4bb-X\ 4ffn\ 4dd\	.	ff
16Fn/	.	.	.	.
16B-X/	.	.	.	.
16c/JJ	.	.	.	.
16d\LL	.	4r	.	.
16c\	.	.	.	.
16B-\	.	.	.	.
16d\JJ)	.	.	.	.
=66	=66	=66	=66	=66
*^	*	*	*	*
*	*xywh-#5:319,876,2489,525	*	*	*	*
8.ryy	(4.g^\ 4.e-X\ 4.A\ 4.Fn\	.	(16fffn^\LL	.	.
.	.	.	16ccc\	.	.
.	.	.	16ffn\JJ	.	.
!LO:TX:a:i:t=m.g.	!	!	!	!	!
16dd>\	.	.	8ryy	.	.
16cc>\	.	.	.	.	.
!	!	!	!LO:TX:a:i:t=m.d.	!	!
16ryy	.	.	16b-X\LL	.	.
8ryy	8fn\)	.	16a\	.	.
.	.	.	16cc\JJ)	.	.
*v	*v	*	*	*	*
=67	=67	=67	=67	=67
(16BB-X/LL 16BBB-X/	.	4ddd\ 4bb-X\ 4ffn\ 4dd^\	.	.
16Fn/	.	.	.	.
16B-X/	.	.	.	.
16c/JJ	.	.	.	.
16d\LL	.	4r	.	.
16c\	.	.	.	.
16B-\	.	.	.	.
16d\JJ)	.	.	.	.
=68	=68	=68	=68	=68
*^	*	*	*	*
*	*xywh-#5:319,876,2489,525	*	*	*	*
8.ryy	(4.g^\ 4.e-X\ 4.A\ 4.Fn\	.	(16fffn^\LL	.	.
.	.	.	16ccc\	.	.
.	.	.	16ffn\JJ	.	.
!	!	!	!LO:TX:a:i:t=m.g.	!	!
16dd>\	.	.	8ryy	.	.
16cc>\	.	.	.	.	.
!	!	!	!LO:TX:a:i:t=m.d.	!	!
16ryy	.	.	16b-X\LL	.	.
8ryy	8fn\)	.	16a\	.	.
.	.	.	16cc\JJ)	.	.
*v	*v	*	*	*	*
!!LO:LB:g=original
=69	=69	=69	=69	=69
*xywh-#5:307,1402,2501,521	*	*xywh-#5:307,1402,2501,521	*	*
16BB-X/LL 16BBB-X'/	.	4ddd\ 4bb-X\ 4ffn\ 4dd^\	.	.
(16Fn/	.	.	.	.
16B-X/	.	.	.	.
16c/JJ	.	.	.	.
16d\LL	.	4r	.	.
16c\	.	.	.	.
16B-\	.	.	.	.
16d\JJ)	.	.	.	.
=70	=70	=70	=70	=70
*^	*	*	*	*
*	*xywh-#5:307,1402,2501,521	*	*	*	*
8.ryy	(4.g\ 4.e-X\ 4.A\ 4.Fn\	.	(16fffn^\LL	.	.
.	.	.	16ccc\	.	.
.	.	.	16ffn\JJ	.	.
!	!	!	!LO:TX:a:i:t=m.g.	!	!
16dd>\	.	.	8ryy	.	.
16cc>/	.	.	.	.	.
!	!	!	!LO:TX:a:i:t=m.d.	!	!
16ryy	.	.	16b-X/LL	.	.
8ryy	8fn\)	.	16a/	.	.
.	.	.	16cc/JJ)	.	.
*v	*v	*	*	*	*
=71	=71	=71	=71	=71
4g\: 4e-X\: 4B-X\: 4E-X:\	.	(16ggg^\LL	.	.
.	.	16bb-X\	.	.
.	.	16gg\	.	.
.	.	16ffn\JJ	.	.
!	!	!LO:TX:b:rj:i:t=piu	!	!
4r	.	16ee-X\LL	.	f
.	.	16dd\	.	.
.	.	16cc\	.	.
.	.	16ee-\JJ)	.	.
=72	=72	=72	=72	=72
4f#X\: 4c\: 4A\: 4D:\	.	(16aaa^\LL	.	.
.	.	16ddd\	.	.
.	.	16aa\	.	.
.	.	16gg\JJ	.	.
4r	.	16ff#X\LL	.	.
.	.	16ee\	.	.
.	.	16dd\	.	.
.	.	16ff#\JJ)	.	.
=73	=73	=73	=73	=73
*	*	*8va	*	*
*^	*	*	*	*
*	*xywh-#5:307,1402,2501,521	*	*	*	*
4ryy	4en\: 4B-X\: 4G\: 4C:\	.	16cccc\LL	.	sf
.	.	.	16eee\	.	.
.	.	.	16ccc\	.	.
.	.	.	16bb-X\JJ	.	.
*v	*v	*	*	*	*
*	*	*X8va	*	*
*^	*	*	*	*
*	*xywh-#5:307,1402,2501,521	*	*	*	*
!	!	!	!LO:TX:a:i:t=m.g.	!	!
16aa>\LL	4r	.	4ryy	.	.
16gg>\	.	.	.	.	.
16ff#X>\	.	.	.	.	.
16gg>\JJ	.	.	.	.	.
=74	=74	=74	=74	=74	=74
!	!	!	!LO:TX:b:t=m.d.	!	!
4r	2r	.	16ccc^\LL	.	.
.	.	.	16ee\	.	.
.	.	.	16cc\	.	.
.	.	.	16b-X\JJ	.	.
!	!	!	!LO:TX:b:t=m.g.	!	!
16a>/LL	.	.	4ryy	.	.
16g>/	.	.	.	.	.
16f#X>/	.	.	.	.	.
16g>/JJ	.	.	.	.	.
*v	*v	*	*	*	*
!!LO:LB:g=original
=75	=75	=75	=75	=75
*xywh-#5:307,1923,2501,537	*	*xywh-#5:307,1923,2501,537	*	*
4ryy	.	16cc^>/LL	.	.
.	.	16e/	.	.
.	.	16c/	.	.
.	.	16B-X/JJ	.	.
16A\LL	.	4ryy	.	.
16G\	.	.	.	.
16F#X\	.	.	.	.
16G\JJ	.	.	.	.
=76	=76	=76	=76	=76
2ryy	.	16c<^/LL	.	.
.	.	16E</	.	.
.	.	16C</	.	.
.	.	16BB-X</JJ	.	.
.	.	16AA</LL	.	.
.	.	16GG</	.	.
.	.	16FF#X</	.	.
.	.	16GG</JJ	.	.
=77	=77	=77	=77	=77
4FFn\ 4FFFn\	.	16r<	.	.
.	.	16Fn</LL 16D</	2 4	<
.	.	16D</	1	.
.	.	16d</JJ 16F</	.	.
16ryy	.	16d</LL 16F</	.	.
16fn>\LL 16d>\	.	8ryy	.	.
16f>\JJ 16d>\	.	.	.	.
16ryy	.	16dd/JJ 16fn/	.	.
=78	=78	=78	=78	=78
16ryy	.	16dd/LL 16fn/	.	.
16ffn>\LL 16dd>\	.	8ryy	.	.
16ff>\JJ 16dd>\	.	.	.	.
8ryy	.	16ddd/JJ 16ffn/	.	.
*	*	*8va	*	*
.	.	16ddd/LL 16ff/	.	.
16ff>\ 16dd>\	.	16r	.	.
8ryy	.	16fff/ 16ddd/	.	.
.	.	16dddd/JJ	.	[[
*clefG2	*	*	*	*
=79	=79	=79	=79	=79
4bb-X\: 4ee\: 4cc\: 4g:\	.	16cccc^\LL	.	.
.	.	16eee\	.	.
.	.	16ccc\	.	.
.	.	16bb-X\JJ	.	.
*	*	*X8va	*	*
4r	.	16aa\LL	.	.
.	.	16gg\	.	.
.	.	16ff#X\	.	.
.	.	16gg\JJ	.	.
=80	=80	=80	=80	=80
4b-X/: 4e/: 4c/: 4G:/	.	16ccc^\LL	.	.
.	.	16ee\	.	.
.	.	16cc\	.	.
.	.	16b-X\JJ	.	.
4r	.	16a/LL	.	.
.	.	16g/	.	.
.	.	16f#X/	.	.
.	.	16g/JJ	.	.
*clefF4	*	*	*	*
!!LO:LB:g=original
=81	=81	=81	=81	=81
*xywh-#5:307,2461,2501,562	*	*xywh-#5:307,2461,2501,562	*	*
4FFn/ 4FFFn/	.	16r<	.	.
.	.	16Fn</LL 16D</	.	<
.	.	16D</	.	.
.	.	16d</JJ 16F</	.	.
16ryy	.	16d</LL 16F</	.	.
16fn>\LL 16d>\	.	8ryy	.	.
16f>\JJ 16d>\	.	.	.	.
16ryy	.	16dd/JJ 16fn/	.	.
=82	=82	=82	=82	=82
16ryy	.	16dd/LL 16fn/	.	.
16ffn>\LL 16dd>\	.	8ryy	.	.
16ff>\JJ 16dd>\	.	.	.	.
8ryy	.	16ddd/JJ 16ffn/	.	.
*	*	*8va	*	*
.	.	16ddd/LL 16ff/	.	.
16ff>\ 16dd>\	.	16ryy	.	.
8ryy	.	16fff/ 16ddd/	.	.
.	.	16dddd/JJ	.	[[
*clefG2	*	*	*	*
=83	=83	=83	=83	=83
4bb-X\ 4ee\ 4cc\ 4g\	.	16cccc^\LL	.	.
.	.	16eee\	.	.
.	.	16ccc\	.	.
.	.	16bb-X\JJ	.	.
*	*	*X8va	*	*
4r	.	16aa\LL	.	.
.	.	16gg\	.	.
.	.	16ff#X\	.	.
.	.	16gg\JJ	.	.
=84	=84	=84	=84	=84
4b-X/ 4e/ 4c/ 4G/	.	16ccc^\LL	.	.
.	.	16ee\	.	.
.	.	16cc\	.	.
.	.	16b-X\JJ	.	.
4r	.	16a/LL	.	.
.	.	16g/	.	.
.	.	16f#X/	.	.
.	.	16g/JJ	.	.
*clefF4	*	*	*	*
=85	=85	=85	=85	=85
4FFn\ 4FFFn\	.	16r<	.	.
.	.	16Fn</LL 16D</	.	<
.	.	16D</	.	.
.	.	16d</JJ 16F</	.	.
16ryy	.	16d</LL 16F</	.	.
16fn>\LL 16d>\	.	8ryy	.	.
16f>\JJ 16d>\	.	.	.	.
16ryy	.	16dd/JJ 16fn/	.	.
!!LO:LB:g=original
=86	=86	=86	=86	=86
*xywh-#5:303,2991,2513,578	*	*xywh-#5:303,2991,2513,578	*	*
16ryy	.	16dd/LL 16fn/	.	.
16ffn>\LL 16dd>\	.	8ryy	.	.
16ff>\JJ 16dd>\	.	.	.	.
8ryy	.	16ddd/JJ 16ffn/	.	.
*	*	*8va	*	*
.	.	16ddd/LL 16ff/	.	.
16ff>\ 16dd>\	.	16ryy	.	.
8ryy	.	16fff/ 16ddd/	.	.
.	.	16dddd/JJ	.	[[
*clefG2	*	*	*	*
=87	=87	=87	=87	=87
4bbn\ 4ffn\ 4dd\ 4g#X\	.	16ffffn\LL	.	.
.	.	16bbbn\	.	.
.	.	16gggn\	.	.
.	.	16fffn\JJ	.	.
4r	.	16eee\LL	.	.
.	.	16ddd\	.	.
.	.	16ccc#X\	.	.
.	.	16ddd\JJ	.	.
*	*	*X8va	*	*
=88	=88	=88	=88	=88
4bn/ 4fn/ 4d/ 4G#X/	.	16fffn^\LL	.	.
.	.	16bb\	.	.
.	.	16ggn\	.	.
.	.	16ffn\JJ	.	.
4r	.	16ee\LL	.	.
.	.	16dd\	.	.
.	.	16cc#X\	.	.
.	.	16dd\JJ	.	.
*clefF4	*	*	*	*
=89	=89	=89	=89	=89
4AA\ 4AAA\	.	16r	.	.
.	.	16Fn</LL 16D</	.	<
.	.	16D</	.	.
.	.	16d</JJ 16F</	.	.
16ryy	.	16d</LL 16F</	.	.
16fn>\LL 16d>\	.	8ryy	.	.
16f>\JJ 16d>\	.	.	.	.
16ryy	.	16dd/JJ 16fn/	.	.
=90	=90	=90	=90	=90
16ryy	.	16dd/LL 16fn/	.	.
16ffn>\LL 16dd>\	.	8ryy	.	.
16ff>\JJ 16dd>\	.	.	.	.
8ryy	.	16ddd/JJ 16ffny/	.	.
.	.	16ddd/LL 16ff/	.	.
16ff>\ 16dd>\	.	16ryy	.	[
8ryy	.	16ff/ 16dd/	.	.
.	.	16ddd/JJ	.	.
*clefG2	*	*	*	*
!!LO:PB:g=original
=91	=91	=91	=91	=91
*xywh-#6:462,353,2541,586	*	*xywh-#6:462,353,2541,586	*	*
4b/: 4fn/: 4d/: 4G#X:/	.	(16fffn^\LL	.	.
.	.	16bb\	.	.
.	.	16ggn\	.	.
.	.	16ffn\JJ	.	.
4r	.	16ee\LL	.	.
.	.	16dd\	.	.
.	.	16cc#X\	.	.
.	.	16dd\JJ)	.	.
*clefF4	*	*	*	*
=92	=92	=92	=92	=92
4B\: 4Fn\: 4D\: 4GG#X:\	.	(16ffn^\LL	.	.
.	.	16b\	.	.
.	.	16gn\	.	.
.	.	16fn\JJ	.	.
4r	.	16e/LL	.	.
.	.	16d/	.	.
.	.	16c#X/	.	.
.	.	16d/JJ)	.	.
=93	=93	=93	=93	=93
4AA\ 4AAA\	.	16r<	.	p
.	.	16Fn</LL 16D</	.	.
.	.	16D</	.	.
.	.	16d</JJ 16F</	.	.
!	!	!LO:TX:a:i:t=m.g.	!	!
16dd>/ 16fn>/	.	16r<	.	.
16ryy	.	16d</LL 16F</	.	.
8ryy	.	16D</	.	.
.	.	16F</JJ 16D</	.	.
=94	=94	=94	=94	=94
4BB-X\ 4BBB-X\	.	16r<	.	.
.	.	16Fn</LL 16D</	.	.
.	.	16D</	.	.
.	.	16d</JJ 16F</	.	.
!	!	!LO:TX:a:i:t=simile	!	!
16dd>/ 16fn>/	.	16r<	.	.
16ryy	.	16d</LL 16F</	.	.
8ryy	.	16D</	.	.
.	.	16F</JJ 16D</	.	.
=95	=95	=95	=95	=95
4BBn\ 4BBBn\	.	16r<	.	.
.	.	16Fn</LL 16D</	.	.
.	.	16D</	.	.
.	.	16d</JJ 16F</	.	.
16dd>/ 16fn>/	.	16r<	.	.
16ryy	.	16d</LL 16F</	.	.
8ryy	.	16D</	.	.
.	.	16F</JJ 16D</	.	.
!!LO:LB:g=original
=96	=96	=96	=96	=96
*xywh-#6:369,905,2634,562	*	*xywh-#6:369,905,2634,562	*	*
4C\ 4CC\	.	16r<	.	.
.	.	16Fn</LL 16D</	.	.
.	.	16D</	.	.
.	.	16d</JJ 16F</	.	.
16dd>/ 16fn>/	.	16r<	.	.
16ryy	.	16d</LL 16F</	.	.
8ryy	.	16D</	.	.
.	.	16F</JJ 16D</	.	.
=97	=97	=97	=97	=97
!	!	!LO:TX:t=cres_:problem=dynamics with extention lines	!	!LO:HP:t=poco a poco cresc.
4C#X\ 4CC#X\	.	16r<	.	<
.	.	16A</LL 16Fn</	.	.
.	.	16F</	.	.
.	.	16fn</JJ 16A/<	.	.
16ffn>/ 16a>/	.	16r<	.	.
16ryy	.	16f</LL 16A</	.	.
8ryy	.	16F</	.	.
.	.	16A</JJ 16F</	.	.
=98	=98	=98	=98	=98
4D\ 4DD\	.	16r<	.	.
.	.	16A</LL 16Fn</	.	.
.	.	16F</	.	.
.	.	16fn</JJ 16A</	.	.
16ffn>/ 16a>/	.	16r<	.	.
16ryy	.	16f</LL 16A</	.	.
8ryy	.	16F</	.	.
.	.	16A</JJ 16F</	.	.
=99	=99	=99	=99	=99
4E-X\ 4EE-X\	.	16r<	.	.
.	.	16A</LL 16Fn</	.	.
.	.	16F</	.	.
.	.	16fn</JJ 16A</	.	.
16ffn>/ 16a>/	.	16r<	.	.
16ryy	.	16f</LL 16A</	.	.
8ryy	.	16F</	.	.
.	.	16A</JJ 16F</	.	.
=100	=100	=100	=100	=100
4En\ 4EEn\	.	16r<	.	.
.	.	16A</LL 16Fn</	.	.
.	.	16F</	.	.
.	.	16fn</JJ 16A</	.	.
16ffn>/ 16a>/	.	16r<	.	.
16ryy	.	16f</LL 16A</	.	.
8ryy	.	16F</	.	.
.	.	16A</JJ 16F</	.	[[
!!LO:LB:g=original
=101	=101	=101	=101	=101
*xywh-#6:417,1411,2644,548	*	*xywh-#6:417,1411,2644,548	*	*
4Fn/ 4FFn/	.	16r	.	f
.	.	16c\LL 16A\	.	.
.	.	16A\	.	.
.	.	16a\JJ 16c\	.	.
16aa>/ 16cc>/	.	16r	.	.
16ryy	.	16a\LL 16c\	.	.
8ryy	.	16A\	.	.
.	.	16c\JJ 16A\	.	.
=102	=102	=102	=102	=102
4F#X/ 4FF#X/	.	16r	.	.
.	.	16c\LL 16A\	.	.
.	.	16A\	.	.
.	.	16a\JJ 16c\	.	.
16aa>/ 16cc>/	.	16r	.	.
16ryy	.	16a\LL 16c\	.	.
8ryy	.	16A\	.	.
.	.	16c\JJ 16A\	.	.
=103	=103	=103	=103	=103
4G/ 4GG/	.	16r	.	.
.	.	16e-X\LL 16c\	.	.
.	.	16c\	.	.
.	.	16cc\JJ 16e-\	.	.
16ccc>/ 16ee-X>/	.	16r	.	.
16ryy	.	16cc\LL 16e-\	.	.
8ryy	.	16c\	.	.
.	.	16e-\JJ 16c\	.	.
=104	=104	=104	=104	=104
4A-X\ 4AA-X\	.	16r	.	.
.	.	16e-X\LL 16c\	.	.
.	.	16c\	.	.
.	.	16cc\JJ 16e-\	.	.
16ccc>/ 16ee-X>/	.	16r	.	.
16ryy	.	16cc\LL 16e-\	.	.
8ryy	.	16c\	.	.
.	.	16e-\JJ 16c\	.	.
=105	=105	=105	=105	=105
4An\ 4AAn\	.	16r	.	.
.	.	16en\LL 16c\	.	.
.	.	16c\	.	.
.	.	16cc\JJ 16e\	.	.
16ccc>/ 16een>/	.	16r	.	.
16ryy	.	16cc\LL 16e\	.	.
8ryy	.	16c\	.	.
.	.	16e\JJ 16c\	.	.
!!LO:LB:g=original
=106	=106	=106	=106	=106
*xywh-#6:424,1942,2610,534	*	*xywh-#6:424,1942,2610,534	*	*
4B-X\ 4BB-X\	.	16r	.	.
.	.	16e\LL 16c\	.	.
.	.	16c\	.	.
.	.	16cc\JJ 16e\	.	.
16ccc>/ 16ee>/	.	16r	.	.
16ryy	.	16cc\LL 16e\	.	.
8ryy	.	16c\	.	.
.	.	16e\JJ 16c\	.	.
=107	=107	=107	=107	=107
4c\ 4C\	.	16r	.	ff
.	.	16fn\LL 16d\	.	.
.	.	16d\	.	.
.	.	16dd\JJ 16f\	.	.
!	!	!LO:TX:a:i:t=m.g.	!	!
4ddd>/ 4ffn>^>/	.	16r	.	.
.	.	16f\LL 16d\	.	.
.	.	16d\	.	.
.	.	16dd\JJ 16f\	.	.
=108	=108	=108	=108	=108
4bb-X>/ 4dd>^>/	.	16r	.	.
.	.	16fn\LL 16d\	.	.
.	.	16d\	.	.
.	.	16dd\JJ 16f\	.	.
4aa>/ 4cc>^>/	.	16r	.	.
.	.	16f\LL 16d\	.	.
.	.	16d\	.	.
.	.	16dd\JJ 16f\	.	.
=109	=109	=109	=109	=109
4gg>/ 4b-X>^>/	.	16r	.	.
.	.	16fn\LL 16d\	.	.
.	.	16d\	.	.
.	.	16dd\JJ 16f\	.	.
!	!	!LO:TX:b:i:t=m.s.	!	!
4dd>\ 4f#>^\	.	16r	.	.
.	.	16ffn/LL 16dd/	.	.
.	.	16dd/	.	.
.	.	16ddd/JJ 16ff/	.	.
=110	=110	=110	=110	=110
4b-X>\ 4d>^\	.	16r	.	.
.	.	16ffn/LL 16dd/	.	.
.	.	16dd/	.	.
.	.	16ddd/JJ 16ff/	.	.
4a>\ 4c>^\	.	16r	.	.
.	.	16ff/LL 16dd/	.	.
.	.	16dd/	.	.
.	.	16ddd/JJ 16ff/	.	.
!!LO:LB:g=original
=111	=111	=111	=111	=111
*xywh-#6:459,2477,2575,534	*	*xywh-#6:459,2477,2575,534	*	*
4g>\ 4B-X>^\	.	16r	.	.
.	.	16ffn/LL 16dd/	.	.
.	.	16dd/	.	.
.	.	16ddd/JJ 16ff/	.	.
4d\ 4Fn^\	.	16r	.	.
.	.	16fn/LL 16d/	.	.
.	.	16d/	.	.
.	.	16dd/JJ 16f/	.	.
=112	=112	=112	=112	=112
4B-X\ 4D^\	.	16r	.	.
.	.	16fn/LL 16d/	.	.
.	.	16d/	.	.
.	.	16dd/JJ 16f/	.	.
4A\ 4C^\	.	16r	.	.
.	.	16f/LL 16d/	.	.
.	.	16d/	.	.
.	.	16dd/JJ 16f/	.	.
=113	=113	=113	=113	=113
4G\ 4BB-X^\	.	16r	.	.
.	.	16fn/LL 16d/	.	.
.	.	16d/	.	.
.	.	16dd/JJ 16f/	.	.
4C/ 4CC^>/	.	16r	.	.
.	.	16f/LL 16d/	.	.
.	.	16d/	.	.
.	.	16dd/JJ 16f/	.	.
=114	=114	=114	=114	=114
4b-X>\ 4d>^\	.	16r	.	.
.	.	16ffn/LL 16dd/	.	.
.	.	16dd/	.	.
.	.	16ddd/JJ 16ff/	.	.
4a>\ 4c>^\	.	16r	.	.
.	.	16ff/LL 16dd/	.	.
.	.	16dd/	.	.
.	.	16ddd/JJ 16ff/	.	.
=115	=115	=115	=115	=115
4g\ 4B-X^\	.	16r	.	.
.	.	16ffn/LL 16dd/	.	.
.	.	16dd/	.	.
.	.	16ddd/JJ 16ff/	.	.
4b-X>\ 4d>^\	.	16r	.	.
.	.	16ff/LL 16dd/	.	.
.	.	16dd/	.	.
.	.	16ddd/JJ 16ff/	.	.
!!LO:LB:g=original
=116	=116	=116	=116	=116
*xywh-#6:459,3011,2599,637	*	*xywh-#6:459,3011,2599,637	*	*
4e\ 4B-X\ 4G\ 4C^\	.	16r	.	.
!	!	!LO:TX:b:i:t=poco rit.	!	!
.	.	16ee/LL 16cc/	.	.
.	.	16cc/	.	.
.	.	16ccc/JJ 16ee/	.	.
4a>\ 4c>\ 4B-X>\	.	16r	.	.
.	.	16ee/LL 16cc/	.	.
.	.	16cc/	.	.
.	.	16ccc/JJ 16ee/	.	.
=117	=117	=117	=117	=117
!	!	!LO:TX:a:i:t=a tempo	!	!
!	!	!LO:TX:b:i:t=espressivo	!	!
(4A/ 4C/ 4FFn/	.	(16ccc\LL	.	f
.	.	16ffn\	.	.
.	.	16cc\	.	.
.	.	16b-X\JJ	.	.
!	!	!	!	!LO:HP:b
4c\	.	16a/LL	.	<
.	.	16g/	.	.
.	.	16fn/	.	.
.	.	16a/JJ)	.	.
=118	=118	=118	=118	=118
4d\ 4G#X\ 4Fn\	.	(16ddd\LL	.	.
.	.	16ffn\	.	.
.	.	16dd\	.	.
.	.	16cc\JJ	.	.
8e\L	.	16bn/LL	.	.
.	.	16a/	.	.
8fn\J	.	16g#X/	.	.
.	.	16b/JJ)	.	.
=119	=119	=119	=119	=119
4g\ 4d-X\ 4Fn\	.	(16fffn\LL	.	.
.	.	16bb-X\	.	.
.	.	16ffn\	.	.
.	.	16ee-X\JJ	.	.
4a-X\	.	16dd-X\LL	.	.
.	.	16cc\	.	.
.	.	16b-X\	.	.
.	.	16dd-\JJ)	.	[[
=120	=120	=120	=120	=120
2an\ 2c\ 2Fn\)	.	(16fffn\LL	.	.
.	.	16aa\	.	.
.	.	16ffn\	.	.
.	.	16dd-X\JJ	.	.
.	.	16cc\LL	.	.
.	.	16b-X\	.	.
.	.	16a\	.	.
.	.	16cc\JJ)	.	.
!!LO:PB:g=original
=121	=121	=121	=121	=121
*xywh-#7:263,377,2412,575	*	*xywh-#7:263,377,2412,575	*	*
(4a-X\ 4Bn\ 4Fn\	.	(16fffn\LL	.	.
.	.	16bbn\	.	.
.	.	16ffn\	.	.
.	.	16ee\JJ	.	.
8g\L	.	16dd\LL	.	.
.	.	16cc\	.	.
8fn\J)	.	16bn\	.	.
.	.	16dd\JJ)	.	.
=122	=122	=122	=122	=122
(4fn\ 4G#X\ 4D\	.	(16ddd\LL	.	.
.	.	16ffn\	.	.
.	.	16dd\	.	.
.	.	16cc\JJ	.	.
8e\L	.	16b/LL	.	.
.	.	16a/	.	.
8d\J)	.	16g#X/	.	.
.	.	16b/JJ)	.	.
=123	=123	=123	=123	=123
(4fn\ 4B-X\ 4C\	.	(16ddd\LL	.	.
.	.	16ffn\	.	.
.	.	16dd\	.	.
.	.	16cc\JJ	.	.
8e\L	.	16b-X/LL	.	.
.	.	16a/	.	.
8d\J)	.	16g/	.	.
.	.	16a/JJ	.	.
=124	=124	=124	=124	=124
(4.d\ 4.B-X\ 4.Fn^\	.	16b-X\LL	.	.
.	.	16a\	.	.
.	.	16b-\	.	.
.	.	16cc\JJ	.	.
.	.	16dd\LL	.	.
.	.	16gg\	.	.
8c\ 8B-\ 8E\)	.	16aa\	.	.
.	.	16bb-X\JJ)	.	.
=125	=125	=125	=125	=125
!LO:TX:b:i:t=sempre ben cantan-	!	!	!	!LO:HP:b=2
(4A/ 4C/ 4FFn/	.	(16ccc\LL	.	<
.	.	16ffn\	.	.
.	.	16cc\	.	.
.	.	16b-X\JJ	.	.
4c\)	.	16a/LL	.	.
.	.	16g/	.	.
.	.	16fn/	.	.
.	.	16a/JJ)	.	[[
!!LO:LB:g=original
=126	=126	=126	=126	=126
*xywh-#7:251,952,2424,542	*	*xywh-#7:251,952,2424,542	*	*
!LO:TX:b:i:t=-do	!	!	!	!LO:HP:b=2
(4d\ 4G#X\ 4Fn\	.	(16ddd\LL	.	<
.	.	16ffn\	.	.
.	.	16dd\	.	.
.	.	16cc\JJ	.	.
8e\L	.	16bn/LL	.	.
.	.	16a/	.	.
8fn\J	.	16g#X/	.	.
.	.	16b/JJ)	.	.
=127	=127	=127	=127	=127
4g\ 4d-X\ 4Fn\	.	(16fffn\LL	.	.
.	.	16bb-X\	.	.
.	.	16ffn\	.	.
.	.	16ee-X\JJ	.	.
4a-X\)	.	16dd-X\LL	.	[
.	.	16cc\	.	.
.	.	16b-X\	.	.
.	.	16dd-\JJ)	.	.
=128	=128	=128	=128	=128
!	!	!	!	!LO:HP:b=2
(4a-X\ 4d-X\ 4B-X\ 4E-X\	.	(16fffn\LL	.	>
.	.	16bb-X\	.	.
.	.	16ffn\	.	.
.	.	16ee-X\JJ	.	.
8g\L	.	16dd-X\LL	.	.
.	.	16cc\	.	.
8fn\J)	.	16b-X\	.	.
.	.	16dd-\JJ)	.	]]
=129	=129	=129	=129	=129
(4c\ 4E-X\ 4AA-X\	.	(16eee-X\LL	.	p
.	.	16aa-X\	.	.
.	.	16ee-X\	.	.
.	.	16dd-X\JJ	.	.
4e-X\	.	16cc\LL	.	.
.	.	16b-X\	.	.
.	.	16a-X\	.	.
.	.	16cc\JJ)	.	.
=130	=130	=130	=130	=130
4fn\ 4Bn\ 4A-X\	.	(16fffn\LL	.	<
.	.	16aa-X\	.	.
.	.	16ffn\	.	.
.	.	16ee-X\JJ	.	.
8g\L	.	16ddn\LL	.	.
.	.	16cc\	.	.
8a-X\J)	.	16bn\	.	.
.	.	16dd\JJ)	.	.
*clefG2	*	*	*	*
!!LO:LB:g=original
=131	=131	=131	=131	=131
*xywh-#7:251,1495,2461,558	*	*xywh-#7:251,1495,2461,558	*	*
*	*	*8va	*	*
(4b-X/ 4en/ 4A-X/	.	(16aaa-X\LL	.	.
.	.	16ddd-X\	.	.
.	.	16aa-X\	.	.
.	.	16gg-X\JJ	.	.
4bn\	.	16ff-X/LL	.	.
.	.	16ee-X/	.	.
.	.	16dd-X/	.	.
.	.	16ff-/JJ)	.	.
=132	=132	=132	=132	=132
2cc/ 2e-X/ 2A-X/)	.	(16aaa-X\LL	.	f
.	.	16ccc\	.	.
.	.	16aa-X\	.	.
.	.	16ffn\JJ	.	.
.	.	16ee-X/LL	.	.
.	.	16dd-X/	.	.
.	.	16cc/	.	.
.	.	16ee-/JJ)	.	.
=133	=133	=133	=133	=133
(4cc/ 4fn/ 4dn^>/	.	(16cccc\LL	.	.
.	.	16fffn\	.	.
.	.	16ccc\	.	.
.	.	16bb-X\JJ	.	.
*	*	*X8va	*	*
8b-X/L	.	16aa-X\LL	.	.
.	.	16gg\	.	.
8a/J)	.	16ffn\	.	.
.	.	16aa-\JJ)	.	.
=134	=134	=134	=134	=134
(>4a-X/ 4d/ 4Fn/	.	(16fffn\LL	.	.
.	.	16ccc\	.	.
.	.	16ffn\	.	.
.	.	16ee-X\JJ	.	.
8g/L	.	16ddn\LL	.	.
.	.	16cc\	.	.
8fn/J)	.	16bn\	.	.
.	.	16dd\JJ)	.	.
*clefF4	*	*	*	*
!!LO:LB:g=original
=135	=135	=135	=135	=135
*xywh-#7:235,2054,2477,526	*	*xywh-#7:235,2054,2477,526	*	*
!	!	!LO:TX:b:t=dim.-:ext2=cd:problem=dynamics with extention lines	!	!
4e-X\ 4G\	.	(16gg\LL	.	>
.	.	16cc\	.	.
.	.	16g\	.	.
.	.	16fn\JJ	.	.
4r	.	16e-X/LL	.	.
.	.	16d/	.	.
.	.	16c/	.	.
.	.	16e-/JJ)	.	.
=136	=136	=136	=136	=136
4Fn/ 4D/ 4GG/	.	(>16g/LL	.	.
.	.	16B/	.	.
.	.	16G/	.	.
.	.	16Fn/JJ	.	.
4r	.	16En/LL	.	.
.	.	16D/	.	.
.	.	16E/	.	.
.	.	16F/JJ	.	.
=137	=137	=137	=137	=137
!	!	!	!	!LO:HP:a
(>16CC\LL	.	8G</ 8E</)	.	pp
16GG\	.	.	.	.
16C\	.	8r<	.	.
16D\JJ	.	.	.	.
16E\LL	.	4r<	.	.
16D\	.	.	.	.
16C\	.	.	.	.
16E\JJ)	.	.	.	.
=138	=138	=138	=138	=138
8r	.	16A</LL 16Fn</	.	<
.	.	16A</JJ 16F</	.	.
16G\LL 16E\	.	8ryy	.	.
16G\JJ 16E\	.	.	.	.
8r	.	16c</LL 16A</	.	.
.	.	16c</JJ 16A</	.	.
16d\LL 16B\	.	16ryy	.	.
!	!	!LO:TX:a:i:t=m.d.	!	!
16d\JJ 16B\	.	16d</ 16B</	.	[[
=139	=139	=139	=139	=139
(>16CC\LL	.	8e</ 8c</	.	.
16GG\	.	.	.	.
16C\	.	8r<	.	.
16D\JJ	.	.	.	.
16E\LL	.	4r<	.	.
16D\	.	.	.	.
16C\	.	.	.	.
16E\JJ)	.	.	.	.
!!LO:LB:g=original
=140	=140	=140	=140	=140
*xywh-#7:235,2580,2469,518	*	*xywh-#7:235,2580,2469,518	*	*
8ryy	.	16A</LL 16Fn</	.	<
.	.	16A</JJ 16F</	.	.
16G\LL 16E\	.	8ryy	.	.
16G\JJ 16E\	.	.	.	.
8ryy	.	16c</LL 16A</	.	.
.	.	16c</JJ 16A</	.	.
16d\LL 16B\	.	16ryy	.	.
!	!	!LO:TX:a:i:t=simile	!	!
16d\JJ 16B\	.	16d</ 16B</	.	[[
=141	=141	=141	=141	=141
(>16CC\LL	.	8e</ 8c</	.	.
16GG\	.	.	.	.
16C\	.	8r<	.	.
16D\JJ	.	.	.	.
16E\LL	.	4r<	.	.
16D\	.	.	.	.
16C\	.	.	.	.
16E\JJ)	.	.	.	.
=142	=142	=142	=142	=142
8ryy	.	16A</LL 16Fn</	.	.
.	.	16A</JJ 16F</	.	.
16G\LL 16E\	.	8ryy	.	.
16G\JJ 16E\	.	.	.	.
8ryy	.	16c</LL 16A</	.	.
.	.	16c</JJ 16A</	.	.
16d\LL 16B\	.	8ryy	.	.
16d\JJ 16B\	.	.	.	.
=143	=143	=143	=143	=143
8ryy	.	16e/LL 16c/	.	<
.	.	16e/JJ 16c/	.	.
16fn>\LL 16d>\	.	8r	.	.
16f>\JJ 16d>\	.	.	.	.
8ryy	.	16a/LL 16f#/	.	.
.	.	16a/JJ 16f#/	.	.
16g>\LL 16e>\	.	8r	.	.
16g>\JJ 16e>\	.	.	.	.
=144	=144	=144	=144	=144
8ryy	.	16e/LL 16c/	.	.
.	.	16e/JJ 16c/	.	.
16B>\LL 16G>\	.	8r	.	.
16B>\JJ 16G>\	.	.	.	.
8ryy	.	16e/LL 16c/	.	.
.	.	16e/JJ 16c/	.	.
16d>\LL 16B>\	.	16r	.	.
16d>\JJ 16B>\	.	16d/ 16B/	.	[[
!!LO:LB:g=original
=145	=145	=145	=145	=145
*xywh-#7:223,3099,2481,538	*	*xywh-#7:223,3099,2481,538	*	*
(16EE/LL	.	8e/ 8B/ 8G/	.	p
16BB/	.	.	.	.
16E/	.	8r	.	.
16F#X/JJ	.	.	.	.
16G\LL	.	4r	.	.
16F#\	.	.	.	.
16E\	.	.	.	.
16G\JJ)	.	.	.	.
=146	=146	=146	=146	=146
!	!	!	!	!LO:HP:a
8ryy	.	16c</LL 16A</	.	<
.	.	16c</JJ 16A</	.	.
16B\LL 16G\	.	8ryy	.	.
16B\JJ 16G\	.	.	.	.
8r	.	16e/LL 16c/	.	.
.	.	16e/JJ 16c/	.	.
16f#X>\LL 16d#X>\	.	16ryy	.	.
16f#X>\JJ 16d#X>\	.	16f#/ 16d#X/	.	[[
=147	=147	=147	=147	=147
(16EE/LL	.	8g/ 8e/	.	.
16BB/	.	.	.	.
16E/	.	8r	.	.
16F#/JJ	.	.	.	.
16G\LL	.	4r	.	.
16F#\	.	.	.	.
16E\	.	.	.	.
16G\JJ)	.	.	.	.
=148	=148	=148	=148	=148
8ryy	.	16c</LL 16A</	.	.
.	.	16c</JJ 16A</	.	.
16B\LL 16G\	.	8ryy	.	<
16B\JJ 16G\	.	.	.	.
8ryy	.	16e/LL 16c/	.	.
.	.	16e/JJ 16c/	.	.
16f#>\LL 16d#X>\	.	16ryy	.	.
16f#X>\JJ 16d#X>\	.	16f#/ 16d#X/	.	[[
=149	=149	=149	=149	=149
!	!	!LO:TX:t=cresc._:problem=dynamics with extention lines	!	!
(16EE/LL	.	8g/ 8e'/	.	<
16BB/	.	.	.	.
16E/	.	8r	.	.
16F#/JJ	.	.	.	.
16G\LL	.	4r	.	.
16F#\	.	.	.	.
16E\	.	.	.	.
16G\JJ)	.	.	.	.
!!LO:PB:g=original
=150	=150	=150	=150	=150
*xywh-#8:477,435,2534,508	*	*xywh-#8:477,435,2534,508	*	*
8ryy	.	16c</LL 16A</	.	.
.	.	16c</JJ 16A</	.	.
16B\LL 16G\	.	8ryy	.	.
16B\JJ 16G\	.	.	.	.
8ryy	.	16e/LL 16c/	.	.
.	.	16e/JJ 16c/	.	<
16f#>\LL 16d#X>\	.	8ryy	.	.
16f#>\JJ 16d#>\	.	.	.	.
=151	=151	=151	=151	=151
8ryy	.	16g/LL 16e/	.	.
.	.	16g/JJ 16e/	.	.
16a>\LL 16f#>\	.	8ryy	.	.
16a>\JJ 16f#>\	.	.	.	.
8r	.	16cc/LL 16a/	.	.
.	.	16cc/JJ 16a/	.	.
16b>\LL 16g>\	.	8ryy	.	.
16b>\JJ 16g>\	.	.	.	.
=152	=152	=152	=152	=152
8r	.	16g/LL 16e/	.	.
.	.	16g/JJ 16e/	.	.
16f#>\LL 16d#X>\	.	8ryy	.	.
16f#>\JJ 16d#>\	.	.	.	.
8r	.	16g/LL 16e/	.	.
.	.	16g/JJ 16e/	.	.
16a>\LL 16f#>\	.	16ryy	.	[
16a>\JJ 16f#>\	.	16a/ 16f#/	.	.
=153	=153	=153	=153	=153
16GG/LL 16GGG/	.	16b/LL 16g/ 16B/	.	ff
!	!	!LO:TX:b:i:t=con bravura	!	!
(16D/	.	(16d/	.	.
16G/	.	16g/	.	.
16A/JJ	.	16a/JJ	.	.
16B\LL	.	16b/LL	.	.
16A\	.	16a/	.	.
16G\	.	16g/	.	.
16B\JJ)	.	16b/JJ)	.	.
=154	=154	=154	=154	=154
8E\L 8C\	.	16cc/LL 16e/	.	.
.	.	16ee/	.	.
8D\ 8BB\	.	16b/ 16d/	.	.
.	.	16dd/JJ	.	<
8G\ 8E\	.	16ee\LL 16g\	.	.
.	.	16gg\	.	.
8A\J 8F#\	.	16ff#\ 16a\	.	.
.	.	16aa\JJ	.	[[
!!LO:LB:g=original
=155	=155	=155	=155	=155
*xywh-#8:477,919,2544,522	*	*xywh-#8:477,919,2544,522	*	*
8B\L 8G\	.	16gg\LL 16b\	.	<
.	.	16bb\	.	.
8c\ 8A\	.	16aa\ 16cc\	.	.
.	.	16ccc\JJ	.	.
8e\ 8c\	.	16ccc\LL 16ee\	.	.
.	.	16eee\	.	[
8d\J 8B\	.	16bb\ 16dd\	.	.
.	.	16ddd\JJ	.	.
=156	=156	=156	=156	=156
8B\L 8G\	.	16gg\LL 16b\	.	.
.	.	16bb\	.	.
8F#\ 8D\	.	16dd\ 16f#\	.	.
.	.	16ff#\JJ	.	.
8G\ 8E\	.	16ee\LL 16g\	.	.
.	.	16gg\	.	.
8A\J 8F#\	.	16ff#\ 16a\	.	.
.	.	16aa\JJ	.	.
=157	=157	=157	=157	=157
16GG/LL 16GGG'/	.	16bb\ 16gg\ 16b'\	.	.
(16D/	.	(16d/LL	.	.
16G/	.	16g/	.	.
16A/JJ	.	16a/JJ	.	.
16B\LL	.	16b/LL	.	.
16A\	.	16a/	.	.
16G\	.	16g/	.	.
16B\JJ)	.	16b/JJ)	.	.
=158	=158	=158	=158	=158
8E\L 8C\	.	16cc/LL 16e/	.	.
.	.	16ee/	.	.
!	!	!	!	!LO:HP:b=2
8D\ 8BB\	.	16b/ 16d/	.	<
.	.	16dd/JJ	.	.
8G\ 8E\	.	16ee\LL 16g\	.	.
.	.	16gg\	.	.
8A\J 8F#\	.	16ff#\ 16a\	.	.
.	.	16aa\JJ	.	.
=159	=159	=159	=159	=159
8B\L 8G\	.	16gg\LL 16b\	.	.
.	.	16bb\	.	.
8c\ 8A\	.	16aa\ 16cc\	.	.
.	.	16ccc\JJ	.	.
8e\ 8c\	.	16ccc\LL 16ee\	.	.
.	.	16eee\	.	.
8d\J 8B\	.	16bb\ 16dd\	.	.
.	.	16ddd\JJ	.	[[
!!LO:LB:g=original
=160	=160	=160	=160	=160
*xywh-#8:473,1441,2548,570	*	*xywh-#8:473,1441,2548,570	*	*
8B\L 8G\	.	16gg\LL 16b\	.	.
.	.	16bb\	.	.
8F#\ 8D\	.	16dd\ 16f#\	.	.
.	.	16ff#\JJ	.	.
8G\ 8E\	.	16ee\LL 16g\	.	.
.	.	16gg\	.	.
8A\J 8F#\	.	16ff#\ 16a\	.	.
.	.	16aa\JJ	.	.
=161	=161	=161	=161	=161
!	!	!LO:TX:b:rj:i:t=sempre	!	!
16BB/LL 16BBB'/	.	16bb\LL 16ff#\ 16b'\	.	ff
(16F#/	.	(16f#\	.	.
16B/	.	16b\	.	.
16c#X/JJ	.	16cc#X\JJ	.	.
16d\LL	.	16dd\LL	.	.
16c#\	.	16cc#\	.	.
16B\	.	16b\	.	.
16d\JJ)	.	16dd\JJ)	.	.
=162	=162	=162	=162	=162
8G\L 8E\	.	16ee\LL 16g\	.	.
.	.	16gg\	.	.
8F#\ 8D\	.	16dd\ 16f#\	.	.
.	.	16ff#\JJ	.	.
8B\ 8G\	.	16gg\LL 16b\	.	<
.	.	16bb\	.	.
8c#X\J 8A#X\	.	16aa#X\ 16cc#X\	.	.
.	.	16ccc#X\JJ	.	.
*clefG2	*	*	*	*
=163	=163	=163	=163	=163
8d/L 8B/	.	16bb\LL 16dd\	.	.
.	.	16ddd\	.	.
8e/ 8c#X/	.	16ccc#X\ 16ee\	.	.
.	.	16eee\JJ	.	.
8g/ 8e/	.	16eee\LL 16gg\	.	[
.	.	16ggg\	.	.
8f#/J 8d/	.	16ddd\ 16ff#\	.	.
.	.	16fff#\JJ	.	.
*clefF4	*	*	*	*
=164	=164	=164	=164	=164
8d\L 8B\	.	16bb\LL 16dd\	.	.
.	.	16ddd\	.	.
8A#X\ 8F#\	.	16ff#\ 16a#X\	.	.
.	.	16aa#X\JJ	.	.
8B\ 8G\	.	16gg\LL 16b\	.	.
.	.	16bb\	.	.
8c#X\J 8A#\	.	16aa#\ 16cc#X\	.	.
.	.	16ccc#X\JJ	.	.
!!LO:LB:g=original
=165	=165	=165	=165	=165
*xywh-#8:473,2012,2575,570	*	*xywh-#8:473,2012,2575,570	*	*
16BB/LL 16BBB'/	.	16ddd\LL 16bb\ 16dd'\	.	.
(16F#/	.	(16f#\	.	.
16B/	.	16b\	.	.
16c#X/JJ	.	16cc#X\JJ	.	.
16d\LL	.	16dd\LL	.	.
16c#\	.	16cc#\	.	.
16B\	.	16b\	.	.
16d\JJ)	.	16dd\JJ)	.	.
=166	=166	=166	=166	=166
!	!	!	!	!LO:HP:b=2
8G\L 8E\	.	16ee\LL 16g\	.	<
.	.	16gg\	.	.
8F#\ 8D\	.	16dd\ 16f#\	.	.
.	.	16ff#\JJ	.	.
8B\ 8G\	.	16gg\LL 16b\	.	.
.	.	16bb\	.	.
8c#X\J 8A#X\	.	16aa#X\ 16cc#X\	.	.
.	.	16ccc#X\JJ	.	.
=167	=167	=167	=167	=167
8d\L 8B\	.	16bb\LL 16dd\	.	.
.	.	16ddd\	.	.
8e\ 8c#X\	.	16ccc#X\ 16ee\	.	.
.	.	16eee\JJ	.	.
8g\ 8e\	.	16eee\LL 16gg\	.	.
.	.	16ggg\	.	.
8f#\J 8d\	.	16ddd\ 16ff#\	.	.
.	.	16fff#\JJ	.	[[
=168	=168	=168	=168	=168
8e\L 8cn\	.	16cccn\LL 16ee\	.	.
.	.	16eee\	.	.
8B\ 8G\	.	16gg\ 16b\	.	.
.	.	16bb\JJ	.	.
8e\ 8c#X\	.	16ccc#X\LL 16ee\	.	.
.	.	16eee\	.	.
8A#X\J 8F#\	.	16ff#\ 16a#X\	.	.
.	.	16aa#X\JJ	.	.
=169	=169	=169	=169	=169
(16GG\LL	.	16bb\LL 16gg\ 16b'\	.	mf
16D\	.	(16d\	.	.
16G\	.	16g\	.	.
16A\JJ	.	16a\JJ	.	.
16B\LL	.	16b/LL	.	.
16A\	.	16a/	.	.
16G\	.	16g/	.	.
16B\JJ)	.	16b/JJ)	.	.
!!LO:LB:g=original
=170	=170	=170	=170	=170
*xywh-#8:470,2582,2579,525	*	*xywh-#8:470,2582,2579,525	*	*
!LO:TX:t=P:problem=mixed beam między kernami	!	!	!	!
16e/ 16cn/	.	16ryy	.	.
16ryy	.	16ee\ 16ccn\	.	.
16B/ 16G/	.	16ryy	.	.
16ryy	.	16b\ 16g\	.	.
!LO:TX:t=P:problem=mixed beam między kernami	!	!	!	!
16e/ 16c#X/	.	16ryy	.	.
16ryy	.	16ee\ 16cc#X\	.	.
16A#X/ 16F#/	.	16r	.	.
16ryy	.	16a#X\ 16f#\	.	.
=171	=171	=171	=171	=171
(16GG\LL	.	16b/LL 16g/	.	p
16D\	.	(16d/	.	.
16G\	.	16g/	.	.
16A\JJ	.	16a/JJ	.	.
16B\LL	.	16b/LL	.	.
16A\	.	16a/	.	.
16G\	.	16g/	.	.
16B\JJ)	.	16b/JJ)	.	.
=172	=172	=172	=172	=172
8ryy	.	16ee/LL 16cc/	.	.
.	.	16ee/JJ 16cc/	.	.
16b>\LL 16g>\	.	8ryy	.	.
16b>\JJ 16g>\	.	.	.	.
8ryy	.	16ee/LL 16cc/	.	.
.	.	16ee/JJ 16cc/	.	.
16a#X>\LL 16f#>\	.	8ryy	.	.
16a#>\JJ 16f#>\	.	.	.	.
=173	=173	=173	=173	=173
8ryy	.	16ee/LL 16cc/	.	>
.	.	16ee/JJ 16cc/	.	.
16b>\LL 16g>\	.	8ryy	.	.
16b>\JJ 16g>\	.	.	.	.
8ryy	.	16ee/LL 16cc/	.	.
.	.	16ee/JJ 16cc/	.	.
16a#X>\LL 16f#>\	.	8ryy	.	.
16a#>\JJ 16f#>\	.	.	.	.
=174	=174	=174	=174	=174
8ryy	.	16dd/LL 16b-X/	.	.
.	.	16dd/JJ 16b-/	.	.
16a>\LL 16fn>\	.	8ryy	.	.
16a>\JJ 16f>\	.	.	.	.
8ryy	.	16dd/LL 16b-/	.	.
.	.	16dd/JJ 16b-/	.	.
16g#X>\LL 16e>\	.	8ryy	.	.
16g#>\JJ 16e>\	.	.	.	.
!!LO:LB:g=original
=175	=175	=175	=175	=175
*xywh-#8:470,3108,2603,563	*	*xywh-#8:470,3108,2603,563	*	*
8ryy	.	16cc\LL 16a-X\	.	.
.	.	16cc\JJ 16a-\	.	.
16gn>\LL 16e-X>\	.	8ryy	.	.
16g>\JJ 16e->\	.	.	.	.
8ryy	.	16cc\LL 16a-\	.	.
.	.	16cc\JJ 16a-\	.	.
16f#X>\LL 16d>\	.	8ryy	.	.
16f#>\JJ 16d>\	.	.	.	.
=176	=176	=176	=176	=176
8ryy	.	16a#X/LL 16f#/	.	.
.	.	16a#/JJ 16f#/	.	.
16e#X>\LL 16c#X>\	.	8ryy	.	.
16e#>\JJ 16c#>\	.	.	.	.
8ryy	.	16a#/LL 16f#/	.	.
.	.	16a#/JJ 16f#/	.	.
16en>\LL 16cn>\	.	8ryy	.	.
16e>\JJ 16c>\	.	.	.	.
=177	=177	=177	=177	=177
8ryy	.	16g#X/LL 16e/	.	pp
.	.	16g#/JJ 16e/	.	.
16d#X>\LL 16B>\	.	8ryy	.	.
16d#>\JJ 16B>\	.	.	.	.
8ryy	.	16g#/LL 16e/	.	.
.	.	16g#/JJ 16e/	.	.
16dn>\LL 16B-X>\	.	8ryy	.	.
16d>\JJ 16B->\	.	.	.	.
=178	=178	=178	=178	=178
8ryy	.	16g#X/LL 16e/	.	.
.	.	16g#/JJ 16e/	.	.
16d>\LL 16B-X>\	.	8ryy	.	.
16d>\JJ 16B->\	.	.	.	.
8ryy	.	16a/LL 16e/	.	.
.	.	16a/JJ 16e/	.	.
16d>\LL 16A>\	.	8ryy	.	.
16d>\JJ 16A>\	.	.	.	.
=179	=179	=179	=179	=179
8ryy	.	16G#X</LL 16E</	.	<
.	.	16G#</JJ 16E</	.	.
16D\LL 16BB-X\	.	8ryy	.	.
16D\JJ 16BB-\	.	.	.	.
8r	.	16A</LL 16E</	.	.
.	.	16A</JJ 16E</	.	.
16D\LL 16AA\	.	8ryy	.	[[
16D\JJ 16AA\	.	.	.	.
!!LO:PB:g=original
=180	=180	=180	=180	=180
*xywh-#9:276,329,2411,555	*	*xywh-#9:276,329,2411,555	*	*
8ryy	.	16B-X</LL 16E</	.	>
.	.	16B-</JJ 16E</	.	.
16D\LL 16GG\	.	8ryy	.	.
16D\JJ 16GG\	.	.	.	.
8ryy	.	16B-</LL 16E</	.	.
.	.	16B-</JJ 16E</	.	.
16C#X\LL 16GG\	.	8ryy	.	]]
16C#\JJ 16GG\	.	.	.	.
=181	=181	=181	=181	=181
(16DD\LL	.	4A</ 4F#X</	.	p
16AA\	.	.	.	.
16D\	.	.	.	.
16E\JJ	.	.	.	.
16F#\LL	.	4r<	.	.
16E\	.	.	.	.
16D\	.	.	.	.
16F#\JJ)	.	.	.	.
=182	=182	=182	=182	=182
4c\ 4G\ 4E\	.	(16gg\LL	.	.
.	.	16cc\	.	.
.	.	16a\	.	.
.	.	16g\JJ	.	.
4r	.	16f#/LL	.	.
.	.	16e/	.	.
.	.	16d/	.	.
.	.	16f#/JJ)	.	.
=183	=183	=183	=183	=183
(16DD/LL	.	4e/ 4c/	.	.
16AA/	.	.	.	.
16D/	.	.	.	.
16E/JJ	.	.	.	.
16F#\LL	.	4r	.	.
16E\	.	.	.	.
16D\	.	.	.	.
16F#\JJ)	.	.	.	.
=184	=184	=184	=184	=184
4c\ 4G\ 4E\	.	(16gg\LL	.	.
.	.	16cc\	.	.
.	.	16a\	.	.
.	.	16g\JJ	.	.
4r	.	16f#/LL	.	.
.	.	16e/	.	.
.	.	16d/	.	.
.	.	16f#/JJ)	.	.
!!LO:LB:g=original
=185	=185	=185	=185	=185
*xywh-#9:276,884,2509,493	*	*xywh-#9:276,884,2509,493	*	*
(16DD/LL	.	4e/ 4c/	.	.
16AA/	.	.	.	.
16D/	.	.	.	.
16E/JJ	.	.	.	.
16F#\LL	.	4r	.	.
16E\	.	.	.	.
16D\	.	.	.	.
16F#\JJ)	.	.	.	.
=186	=186	=186	=186	=186
4c\ 4G\ 4E\	.	(16gg\LL	.	.
.	.	16cc\	.	.
.	.	16g\	.	.
.	.	16f#\JJ	.	.
4r	.	16e/LL	.	.
.	.	16d/	.	.
.	.	16c/	.	.
.	.	16e/JJ	.	.
=187	=187	=187	=187	=187
(16DD/LL	.	4d/ 4B/)	.	.
16GG/	.	.	.	.
16D/	.	.	.	.
16E/JJ	.	.	.	.
16G\LL	.	4r	.	.
16F#\	.	.	.	.
16E\	.	.	.	.
16F#\JJ)	.	.	.	.
=188	=188	=188	=188	=188
4c#X\ 4G\ 4E\	.	(16ee/LL	.	.
.	.	16a/	.	.
.	.	16e/	.	.
.	.	16d/JJ	.	.
4r	.	16c#X/LL	.	.
.	.	16B/	.	.
.	.	16A/	.	.
.	.	16c#/JJ)	.	.
=189	=189	=189	=189	=189
(16GG\LL	.	4d/ 4B/	.	.
16D\	.	.	.	.
16G\	.	.	.	.
16A\JJ	.	.	.	.
16B\LL	.	4r	.	.
16A\	.	.	.	.
16G\	.	.	.	.
16B\JJ)	.	.	.	.
!!LO:LB:g=original
=190	=190	=190	=190	=190
*xywh-#9:280,1377,2506,496	*	*xywh-#9:280,1377,2506,496	*	*
4fn\ 4c\ 4A\	.	(16ccc\LL	.	.
.	.	16ffn\	.	.
.	.	16dd\	.	.
.	.	16cc\JJ	.	.
4r	.	16b/LL	.	.
.	.	16a/	.	.
.	.	16g/	.	.
.	.	16b/JJ)	.	.
=191	=191	=191	=191	=191
(16GG\LL	.	4a/ 4fn/	.	.
16D\	.	.	.	.
16G\	.	.	.	.
16A\JJ	.	.	.	.
16B\LL	.	4r	.	.
16A\	.	.	.	.
16G\	.	.	.	.
16B\JJ)	.	.	.	.
=192	=192	=192	=192	=192
4fn\ 4c\ 4A\	.	(16ccc\LL	.	.
.	.	16ffn\	.	.
.	.	16dd\	.	.
.	.	16cc\JJ	.	.
4r	.	16b/LL	.	.
.	.	16a/	.	.
.	.	16g/	.	.
.	.	16b/JJ)	.	.
=193	=193	=193	=193	=193
(16GG\LL	.	4a/ 4fn/	.	.
16D\	.	.	.	.
16G\	.	.	.	.
16A\JJ	.	.	.	.
16B\LL	.	4r	.	.
16A\	.	.	.	.
16G\	.	.	.	.
16B\JJ)	.	.	.	.
=194	=194	=194	=194	=194
4f#X\ 4c\ 4A\	.	(16ccc\LL	.	.
.	.	16ff#X\	.	.
.	.	16dd\	.	.
.	.	16cc\JJ	.	.
4r	.	16b\LL	.	.
.	.	16a\	.	.
.	.	16b\	.	.
.	.	16cc\JJ)	.	.
!!LO:LB:g=original
=195	=195	=195	=195	=195
*xywh-#9:280,1874,2498,537	*	*xywh-#9:280,1874,2498,537	*	*
!	!	!LO:TX:b:t=dim.-:ext2=cd:problem=dynamics with extention lines	!	!
4r	.	(16dd\LL	.	>
.	.	16ee\	.	.
.	.	16ff#\	.	.
.	.	16ee\JJ	.	.
*clefG2	*	*	*	*
(4dd/ 4cc/ 4f#/	.	16ff#\LL	.	.
.	.	16gg\	.	.
.	.	16aa\	.	.
.	.	16bb\JJ	.	.
=196	=196	=196	=196	=196
4cc/ 4g/ 4e/	.	16ccc\LL	.	.
.	.	16bb\	.	.
.	.	16aa\	.	.
.	.	16bb\JJ	.	.
4cc/ 4f#/ 4d/)	.	16ccc\LL	.	.
.	.	16ddd\	.	.
.	.	16eee\	.	.
.	.	16fff#\JJ)	.	.
=197	=197	=197	=197	=197
(2b/ 2d/ 2G/	.	(16ggg\LL	.	pp
.	.	16ddd\	.	.
.	.	16gg\	.	.
.	.	16aa\JJ	.	.
.	.	16bb\LL	.	.
.	.	16aa\	.	.
.	.	16gg\	.	.
.	.	16bb\JJ	.	.
=198	=198	=198	=198	=198
2a/ 2fn/)	.	16ddd\LL	.	.
.	.	16aa\	.	.
.	.	16dd\	.	.
.	.	16ee\JJ	.	.
.	.	16ffn\LL	.	.
.	.	16ee\	.	.
.	.	16dd\	.	.
.	.	16ff\JJ	.	.
*clefF4	*	*	*	*
=199	=199	=199	=199	=199
(2B\ 2D\ 2GG\	.	16gg\LL	.	.
.	.	16dd\	.	.
.	.	16g\	.	.
.	.	16a\JJ	.	.
.	.	16b/LL	.	.
.	.	16a/	.	.
.	.	16g/	.	.
.	.	16b/JJ)	.	.
!!LO:LB:g=original
=200	=200	=200	=200	=200
*xywh-#9:287,2411,2491,533	*	*xywh-#9:287,2411,2491,533	*	*
2A\ 2Fn\)	.	(>16dd/LL	.	.
.	.	16a/	.	.
.	.	16d/	.	.
.	.	16e/JJ	.	.
.	.	16fn/LL	.	.
.	.	16e/	.	.
.	.	16d/	.	.
.	.	16f/JJ	.	.
=201	=201	=201	=201	=201
2BB/ 2GG/	.	16g/LL	.	.
.	.	16d/	.	.
.	.	16G/	.	.
.	.	16A/JJ	.	.
.	.	16B/LL	.	.
.	.	16A/	.	.
.	.	16G/	.	.
.	.	16B/JJ)	.	.
=202	=202	=202	=202	=202
[<2AA\ [<2GG\	.	(>16d</LL	.	.
.	.	16A</	.	.
.	.	16D</	.	.
.	.	16E</JJ	.	.
!	!	!LO:TX:a:i:t=sempre piu	!	!
.	.	16Fn</LL	.	.
.	.	16E</	.	.
.	.	16D</	.	.
.	.	16F</JJ	.	.
=203	=203	=203	=203	=203
2AA\] 2GG\]	.	16d</LL	.	pp
.	.	16A</	.	.
.	.	16D</	.	.
.	.	16E</JJ	.	.
.	.	16Fn</LL	.	.
.	.	16E</	.	.
.	.	16D</	.	.
.	.	16F</JJ	.	.
=204	=204	=204	=204	=204
2AA\ 2AAA\	.	16d</LL	.	.
.	.	16A</	.	.
.	.	16D</	.	.
.	.	16E</JJ	.	.
.	.	16F#X</LL	.	.
.	.	16E</	.	.
.	.	16D</	.	.
.	.	16F#</JJ	.	.
!!LO:LB:g=original
=205	=205	=205	=205	=205
*xywh-#9:287,2944,2473,632	*	*xywh-#9:287,2944,2473,632	*	*
8GGG\	.	16E</LL 16C</	.	.
!	!	!LO:TX:b:i:t=legg.	!	!
.	.	16E</JJ 16C</)	.	.
16D\LL 16BB\	.	8ryy	.	.
16D\JJ 16BB\	.	.	.	.
8ryy	.	16G</LL 16E</	.	.
.	.	16G</JJ 16E</	.	.
16A\LL 16F#\	.	8ryy	.	.
16A\JJ 16F#\	.	.	.	.
=206	=206	=206	=206	=206
8ryy	.	16e/LL 16c/	.	.
.	.	16e/JJ 16c/	.	.
16d>\LL 16B>\	.	8ryy	.	.
16d>\JJ 16B>\	.	.	.	.
8ryy	.	16g/LL 16e/	.	.
.	.	16g/JJ 16e/	.	.
16a>\LL 16f#>\	.	8ryy	.	.
16a>\JJ 16f#>\	.	.	.	.
=207	=207	=207	=207	=207
8ryy	.	16ee/LL 16cc/	.	.
.	.	16ee/JJ 16cc/	.	.
16dd>\LL 16b>\	.	8ryy	.	.
16dd>\JJ 16b>\	.	.	.	.
8ryy	.	16gg/LL 16ee/	.	.
.	.	16gg/JJ 16ee/	.	.
16aa>\LL 16ff#>\	.	8ryy	.	.
16aa>\JJ 16ff#>\	.	.	.	.
=208	=208	=208	=208	=208
*8va	*	*8va	*	*
8ryy	.	16eee/LL 16ccc/	.	.
.	.	16eee/JJ 16ccc/	.	.
16ddd>\LL 16bb>\	.	8ryy	.	.
16ddd>\JJ 16bb>\	.	.	.	.
8ryy	.	16ggg/LL 16eee/	.	.
.	.	16ggg/JJ 16eee/	.	.
16aaa>\LL 16fff#>\	.	8ryy	.	.
16aaa>\JJ 16fff#>\	.	.	.	.
*X8va	*	*	*	*
=209	=209	=209	=209	=209
2r	.	8bbb\ 8ggg'\	.	.
.	.	8r	.	.
.	.	4r	.	.
*clefG2	*	*	*	*
=210	=210	=210	=210	=210
8b/ 8d/ 8G'/	.	8ggg\ 8ddd\ 8bb\ 8gg'\	.	.
*	*	*X8va	*	*
8r	.	8r	.	.
4r	.	4r	.	.
*clefF4	*	*	*	*
=211	=211	=211	=211	=211
8GG/ 8GGG'/	.	2r;	.	.
8r	.	.	.	.
4r;	.	.	.	.
==	==	==	==	==
*-	*-	*-	*-	*-
!!!system-decoration: [(s1,s2)]
!!!RDF**kern: > = above
!!!RDF**kern: < = below
!!!RDF**dynam: > = dim.
!!!ENC: Andrzej Gręziak
!!!END: 2022-02-15
!!!ENC: Leszek Kubiak
!!!END: 2022-02-17
!!!IIIF: https://polona.pl/iiif/item/NTM4MjU5NTU/manifest.json
!!!ENC-iiif: Olaf Gawdzik
!!!END-iiif: 2022-09-02
